X: 1
T: The Irish Rover
C: J M Crofts
Z: John Chambers <jc:trillian.mit.edu>
R: march
M: 2/4
L: 1/8
K: D
FE \
|:"D"D2 FG | A2 de | f2 ed | "G"d2 cB \
| "D"A2 BG |1 F2 AF | "A7"E4 | z GFE :|2 "A7"FG- GE | "D"D4 | z ABc |]
[| "D"d3 e | f2 ed | "A7"e>f ec | A2 Bc | "D"d3 e | f2 ed | "A7"e3 c | [AA2]>G FE |]
[| "D"D2 FG | A2 de | f2 dF | "G"G2 FE | "D"D2 FA | d2 f2 | "A7"e4 | "D"d2 |]


%%sep 3 1 500

